IMB-X-Files/The-Ambassadors-Assets/660be88201f435cd508e1ad7_﹟29.svg

<svg fill="none" height="80" viewBox="0 0 80 80" width="80" xmlns="http://www.w3.org/2000/svg"><path d="m40 78.4468 33.3333-19.245v-10.3098m-33.3333 29.5548-33.33334-19.245v-10.3098m33.33334 29.5548v-9.9661m0-28.5239v-9.6225m0 9.6225 16.3279-9.4269m-16.3279 9.4269-16.3279-9.4269m16.3279-.1956 16.3279-9.6225m-16.3279 9.6225-16.3279-9.6225m16.3279 0v-9.6225m0 9.6225 7.9041-5.0591m-7.9041 5.0591-7.9041-5.0591m7.9041-4.5634 7.9041-5.05908m-7.9041 5.05908-7.9041-5.05908m15.8082 0-7.9041-4.56342-7.9041 4.56342m15.8082 0v9.62248m-15.8082-9.62248v9.62248m7.9041 33.9266v8.9352m0-8.9352 24.7433-14.7958m-24.7433 14.7958-24.7434-14.7958m24.7434 23.731 24.7433-14.7958m-24.7433 14.7958-24.7434-14.7958m24.7434 24.762 33.3333-19.5887m-33.3333 19.5887-33.33334-19.5887m66.66664 0-8.59-5.1733m-58.07664 5.1733 8.58994-5.1733m32.6475-28.066 8.4238 5.0591m0 0v9.8181m-24.232-14.8772-8.4238 5.0591m0 0v9.8181m32.6558 0 8.4154 4.2536m-41.0712-4.2536-8.4155 4.2536m49.4867 0v8.9352m-49.4867-8.9352v8.9352" stroke="#ff279c" stroke-linecap="round" stroke-linejoin="round" stroke-width="1.5"/></svg>

<svg width="80" height="80" viewBox="0 0 80 80" fill="none" xmlns="http://www.w3.org/2000/svg">
    <path
        d="M40 78.4468L73.3333 59.2018V48.892M40 78.4468L6.66666 59.2018V48.892M40 78.4468V68.4807M40 39.9568V30.3343M40 39.9568L56.3279 30.5299M40 39.9568L23.6721 30.5299M40 30.3343L56.3279 20.7118M40 30.3343L23.6721 20.7118M40 20.7118V11.0893M40 20.7118L47.9041 15.6527M40 20.7118L32.0959 15.6527M40 11.0893L47.9041 6.03022M40 11.0893L32.0959 6.03022M47.9041 6.03022L40 1.4668L32.0959 6.03022M47.9041 6.03022V15.6527M32.0959 6.03022V15.6527M40 49.5793V58.5145M40 49.5793L64.7433 34.7835M40 49.5793L15.2566 34.7835M40 58.5145L64.7433 43.7187M40 58.5145L15.2566 43.7187M40 68.4807L73.3333 48.892M40 68.4807L6.66666 48.892M73.3333 48.892L64.7433 43.7187M6.66666 48.892L15.2566 43.7187M47.9041 15.6527L56.3279 20.7118M56.3279 20.7118V30.5299M32.0959 15.6527L23.6721 20.7118M23.6721 20.7118V30.5299M56.3279 30.5299L64.7433 34.7835M23.6721 30.5299L15.2566 34.7835M64.7433 34.7835V43.7187M15.2566 34.7835V43.7187"
        stroke="#FF279C" stroke-width="1.5" stroke-linecap="round" stroke-linejoin="round" />
</svg>
